assets/dist/images/covid-19/hero.svg

<svg xmlns="http://www.w3.org/2000/svg" xmlns:xlink="http://www.w3.org/1999/xlink" width="350" height="350" viewBox="0 0 350 350">
  <defs>
    <path id="hero-a" d="M73.4445542,0.00486579489 C73.3405026,0.00155705436 73.2358697,0 73.1312368,0 L73.1312368,0 L10.111996,0 C10.0511539,0 9.99050553,0.000389263591 9.9298572,0.00155705436 L9.9298572,0.00155705436 C9.87017768,0.000389263591 9.81069193,0 9.75081866,0 L9.75081866,0 C4.32521459,0 0,4.34457094 0,9.79426122 L0,9.79426122 C0,11.0167435 0.232905113,12.1895947 0.658412292,13.2698012 L0.658412292,13.2698012 C0.857408592,13.8784148 1.11879711,14.4759344 1.44451549,15.0543801 L1.44451549,15.0543801 L32.9541359,69.8307741 C33.4059951,70.6155295 33.9479548,71.3132845 34.5585072,71.9191733 L34.5585072,71.9191733 C36.3330039,73.8094373 38.8715147,75 41.7117169,75 L41.7117169,75 C44.0843651,75 46.2684803,74.110922 47.9495824,72.6498211 L47.9495824,72.6498211 C48.9021295,71.8981531 49.7329923,70.9532157 50.3791974,69.8307741 L50.3791974,69.8307741 L81.8888178,15.0543801 C82.2083358,14.4872231 82.4656552,13.9017706 82.6632952,13.3056134 L82.6632952,13.3056134 C83.0953903,12.2152861 83.3333333,11.0303678 83.3333333,9.79426122 L83.3333333,9.79426122 C83.3333333,4.34457094 79.0081187,0 73.7631033,0 L73.7631033,0 C73.656339,0 73.550156,0.00155705436 73.4445542,0.00486579489 L73.4445542,0.00486579489 Z M44.7815304,51.5114456 L69.7002461,8.07118593 C69.7897654,7.94837327 69.8482823,7.85475537 69.8808347,7.79909068 L69.8808347,7.79909068 C70.6181092,6.37788931 72.05003,5.44112648 73.7631033,5.44112648 L73.7631033,5.44112648 C76.0179426,5.44112648 77.9162549,7.35046439 77.9162549,9.79426122 L77.9162549,9.79426122 C77.9162549,10.6294263 77.6416904,11.4497993 77.1939003,12.1522254 L77.1939003,12.1522254 C77.1441028,12.189984 77.1115503,12.2499306 77.1037997,12.3336223 L77.1037997,12.3336223 L49.6568428,60.0361237 L44.7815304,51.5114456 Z M10.111996,5.44112648 L65.0053285,5.44112648 L60.1300161,13.9661938 L10.111996,13.9661938 C10.0265458,13.9661938 9.94303319,13.9634689 9.84111298,13.9661938 L9.84111298,13.9661938 C9.77872077,13.9634689 9.69675832,13.9661938 9.57042376,13.9661938 L9.57042376,13.9661938 C7.22606522,13.9661938 5.32697785,12.0576344 5.32697785,9.79426122 L5.32697785,9.79426122 C5.32697785,7.34968586 7.22606522,5.44112648 9.57042376,5.44112648 L9.57042376,5.44112648 C9.69675832,5.44112648 9.778527,5.44365669 9.84111298,5.44112648 L9.84111298,5.44112648 C9.8750218,5.44209964 9.90699297,5.44229427 9.93760778,5.44229427 L9.93760778,5.44229427 C9.99883741,5.44229427 10.0548354,5.44112648 10.111996,5.44112648 L10.111996,5.44112648 Z M26.323897,19.4073202 L57.0096301,19.4073202 L41.6665698,46.0796615 L26.323897,19.4073202 Z M37.7393478,67.2914131 C37.7453545,67.2273792 37.7151272,67.1771642 37.6488597,67.1100163 L37.6488597,67.1100163 L10.2923909,19.4073202 L20.0434033,19.4073202 L45.0524133,62.8475799 C45.0855471,62.9665 45.1398012,63.0710172 45.2328082,63.2103736 L45.2328082,63.2103736 C45.6160747,63.8493498 45.8648685,64.6541523 45.8648685,65.5681432 L45.8648685,65.5681432 C45.8648685,67.831711 43.967525,69.7400757 41.7117169,69.7400757 L41.7117169,69.7400757 C39.930826,69.7400757 38.4494952,68.7233192 37.7393478,67.2914131 L37.7393478,67.2914131 Z"/>
  </defs>
  <g fill="none" fill-rule="evenodd">
    <circle cx="175" cy="175" r="175" fill="#84D2E8" opacity=".2"/>
    <circle cx="175" cy="175" r="145" fill="#84D2E8" opacity=".2"/>
    <circle cx="175" cy="175" r="115" fill="#84D2E8" opacity=".2"/>
    <circle cx="175" cy="175" r="85" fill="#84D2E8"/>
    <use fill="#FFF" transform="translate(133 144)" xlink:href="#hero-a"/>
  </g>
</svg>

<svg xmlns="http://www.w3.org/2000/svg" xmlns:xlink="http://www.w3.org/1999/xlink" width="350" height="350" viewBox="0 0 350 350"><defs><path id="a" d="M73.445.005A9.867 9.867 0 0073.13 0H10.112c-.06 0-.121 0-.182.002A9.138 9.138 0 009.75 0C4.326 0 0 4.345 0 9.794c0 1.223.233 2.396.658 3.476a9.9 9.9 0 00.787 1.784l31.51 54.777a9.888 9.888 0 001.604 2.088A9.772 9.772 0 0041.712 75c2.372 0 4.556-.89 6.238-2.35a9.824 9.824 0 002.43-2.82l31.509-54.776a9.83 9.83 0 00.774-1.748c.432-1.09.67-2.276.67-3.512 0-5.45-4.325-9.794-9.57-9.794-.107 0-.213.002-.318.005zM44.782 51.51L69.7 8.071c.09-.123.148-.216.18-.272a4.317 4.317 0 013.883-2.358c2.255 0 4.153 1.91 4.153 4.353 0 .835-.274 1.656-.722 2.358a.245.245 0 00-.09.182L49.657 60.036l-4.875-8.525zM10.112 5.44h54.893l-4.875 8.525H10.112c-.085 0-.169-.003-.27 0-.063-.003-.145 0-.272 0-2.344 0-4.243-1.908-4.243-4.172 0-2.444 1.9-4.353 4.243-4.353.127 0 .209.003.271 0l.097.001h.174zm16.212 13.966H57.01L41.667 46.08 26.324 19.407zM37.739 67.29c.006-.064-.024-.114-.09-.181L10.292 19.407h9.751l25.01 43.44c.033.12.087.224.18.363.383.64.632 1.444.632 2.358 0 2.264-1.897 4.172-4.153 4.172a4.408 4.408 0 01-3.973-2.449z"/></defs><g fill="none" fill-rule="evenodd"><circle cx="175" cy="175" r="175" fill="#84D2E8" opacity=".2"/><circle cx="175" cy="175" r="145" fill="#84D2E8" opacity=".2"/><circle cx="175" cy="175" r="115" fill="#84D2E8" opacity=".2"/><circle cx="175" cy="175" r="85" fill="#84D2E8"/><use fill="#FFF" transform="translate(133 144)" xlink:href="#a"/></g></svg>
